Faba/24x24/actions/call-stop.svg

<?xml version="1.0" encoding="UTF-8" standalone="no"?>
<!-- Created with Inkscape (http://www.inkscape.org/) -->

<svg
   xmlns:dc="http://purl.org/dc/elements/1.1/"
   xmlns:cc="http://creativecommons.org/ns#"
   xmlns:rdf="http://www.w3.org/1999/02/22-rdf-syntax-ns#"
   xmlns:svg="http://www.w3.org/2000/svg"
   xmlns="http://www.w3.org/2000/svg"
   xmlns:sodipodi="http://sodipodi.sourceforge.net/DTD/sodipodi-0.dtd"
   xmlns:inkscape="http://www.inkscape.org/namespaces/inkscape"
   width="24"
   height="24"
   id="svg3495"
   version="1.1"
   inkscape:version="0.48.4 r9939"
   sodipodi:docname="call-start.svg">
  <defs
     id="defs3497" />
  <sodipodi:namedview
     id="base"
     pagecolor="#ffffff"
     bordercolor="#666666"
     borderopacity="1.0"
     inkscape:pageopacity="0.0"
     inkscape:pageshadow="2"
     inkscape:zoom="1"
     inkscape:cx="2.4265661"
     inkscape:cy="-1.6657376"
     inkscape:current-layer="layer1"
     showgrid="false"
     inkscape:grid-bbox="true"
     inkscape:document-units="px"
     inkscape:window-width="1364"
     inkscape:window-height="701"
     inkscape:window-x="0"
     inkscape:window-y="27"
     inkscape:window-maximized="1"
     inkscape:snap-bbox="true"
     inkscape:bbox-paths="true"
     inkscape:bbox-nodes="true"
     inkscape:snap-bbox-edge-midpoints="false">
    <inkscape:grid
       type="xygrid"
       id="grid3512"
       empspacing="4"
       visible="true"
       enabled="true"
       snapvisiblegridlinesonly="true"
       dotted="false" />
  </sodipodi:namedview>
  <metadata
     id="metadata3500">
    <rdf:RDF>
      <cc:Work
         rdf:about="">
        <dc:format>image/svg+xml</dc:format>
        <dc:type
           rdf:resource="http://purl.org/dc/dcmitype/StillImage" />
        <dc:title></dc:title>
      </cc:Work>
    </rdf:RDF>
  </metadata>
  <g
     id="layer1"
     inkscape:label="Layer 1"
     inkscape:groupmode="layer"
     transform="translate(1,-25)">
    <path
       id="path13"
       d="m 21.09944,41.489871 c -0.545123,0.932753 -1.904965,0.672484 -2.875631,0.530258 -0.943512,-0.137264 -2.069799,-0.276085 -2.689803,-1.154176 -0.348606,-0.491831 -0.242194,-1.100891 -0.240519,-1.629684 0.0015,-0.521928 0.159909,-1.181378 -0.139922,-1.635473 -0.485511,-0.737868 -1.501432,-0.929921 -2.09687,-1.019829 -1.348144,-0.199991 -2.711063,-0.210048 -4.1513337,0.0378 C 8.2073443,36.73803 7.2561777,36.91925 6.8720622,37.595735 6.2987314,38.60652 7.1614588,39.755042 6.4892448,40.813889 5.8496282,41.821833 4.679824,41.863109 3.8096507,41.990042 2.9695694,42.110506 1.7534948,42.426215 1.0821007,41.74935 0.69700913,41.359818 0.72880585,40.8071 0.72915945,40.30396 c -9.156e-4,-0.512403 -0.0642346,-1.016079 -0.00162,-1.467464 0.1510918,-1.093481 0.67184265,-2.142985 1.55637155,-3.09885 0.8671246,-0.937198 1.8614179,-1.420059 2.8377722,-1.793819 1.9096598,-0.730169 3.8665852,-0.918131 5.8860978,-0.942141 1.985837,-0.02415 4.111091,0.206911 6.01865,0.971273 2.381614,0.95503 3.968827,2.924461 4.24727,4.971692 0.04795,0.34702 0.01684,0.802436 0.01189,1.239815 -0.0037,0.43729 0.05388,0.895232 -0.186148,1.305407 z"
       clip-rule="evenodd"
       inkscape:connector-curvature="0"
       style="fill:#555555;fill-opacity:1;fill-rule:evenodd;stroke:none;display:inline;enable-background:new" />
    <path
       style="opacity:0.1;fill:#ffffff;fill-opacity:1;fill-rule:evenodd;stroke:none;display:inline;enable-background:new"
       inkscape:connector-curvature="0"
       clip-rule="evenodd"
       d="m 21.09944,40.489871 c -0.545123,0.932753 -1.904965,0.672484 -2.875631,0.530258 -0.943512,-0.137264 -2.069799,-0.276085 -2.689803,-1.154176 -0.348606,-0.491831 -0.242194,-1.100891 -0.240519,-1.629684 0.0015,-0.521928 0.159909,-1.181378 -0.139922,-1.635473 -0.485511,-0.737868 -1.501432,-0.929921 -2.09687,-1.019829 -1.348144,-0.199991 -2.711063,-0.210048 -4.1513337,0.0378 C 8.2073443,35.73803 7.2561777,35.91925 6.8720622,36.595735 6.2987314,37.60652 7.1614588,38.755042 6.4892448,39.813889 5.8496282,40.821833 4.679824,40.863109 3.8096507,40.990042 2.9695694,41.110506 1.7534948,41.426215 1.0821007,40.74935 0.69700913,40.359818 0.72880585,39.8071 0.72915945,39.30396 c -9.156e-4,-0.512403 -0.0642346,-1.016079 -0.00162,-1.467464 0.1510918,-1.093481 0.67184265,-2.142985 1.55637155,-3.09885 0.8671246,-0.937198 1.8614179,-1.420059 2.8377722,-1.793819 1.9096598,-0.730169 3.8665852,-0.918131 5.8860978,-0.942141 1.985837,-0.02415 4.111091,0.206911 6.01865,0.971273 2.381614,0.95503 3.968827,2.924461 4.24727,4.971692 0.04795,0.34702 0.01684,0.802436 0.01189,1.239815 -0.0037,0.43729 0.05388,0.895232 -0.186148,1.305407 z"
       id="path3806" />
  </g>
</svg>

<svg xmlns="http://www.w3.org/2000/svg" viewBox="0 0 24 24"><g transform="translate(1-25)" fill-rule="evenodd"><path d="m21.1 41.49c-.545.933-1.905.672-2.876.53-.944-.137-2.07-.276-2.69-1.154-.349-.492-.242-1.101-.241-1.63.002-.522.16-1.181-.14-1.635-.486-.738-1.501-.93-2.097-1.02-1.348-.2-2.711-.21-4.151.038-.698.119-1.649.3-2.033.977-.573 1.01.289 2.159-.383 3.218-.64 1.01-1.809 1.049-2.68 1.176-.84.12-2.056.436-2.728-.241-.385-.39-.353-.942-.353-1.445-.001-.512-.064-1.016-.002-1.467.151-1.093.672-2.143 1.556-3.099.867-.937 1.861-1.42 2.838-1.794 1.91-.73 3.867-.918 5.886-.942 1.986-.024 4.111.207 6.02.971 2.382.955 3.969 2.924 4.247 4.972.048.347.017.802.012 1.24-.004.437.054.895-.186 1.305" fill="#555"/><path d="m21.1 40.49c-.545.933-1.905.672-2.876.53-.944-.137-2.07-.276-2.69-1.154-.349-.492-.242-1.101-.241-1.63.002-.522.16-1.181-.14-1.635-.486-.738-1.501-.93-2.097-1.02-1.348-.2-2.711-.21-4.151.038-.698.119-1.649.3-2.033.977-.573 1.01.289 2.159-.383 3.218-.64 1.01-1.809 1.049-2.68 1.176-.84.12-2.056.436-2.728-.241-.385-.39-.353-.942-.353-1.445-.001-.512-.064-1.016-.002-1.467.151-1.093.672-2.143 1.556-3.099.867-.937 1.861-1.42 2.838-1.794 1.91-.73 3.867-.918 5.886-.942 1.986-.024 4.111.207 6.02.971 2.382.955 3.969 2.924 4.247 4.972.048.347.017.802.012 1.24-.004.437.054.895-.186 1.305" opacity=".1" fill="#fff"/></g></svg>
